X: 1205
T: Kani Yâd-ı Lebinle
C: Tanburî Ali Efendi
O: Turkey
F: http://compmusic.upf.edu/node/140
N: suzidil--agirsemai--aksaksemai--kani_yad-i--tanburi_ali_efendi
N: makam= suzidil
N: form= agirsemai
N: usul= aksaksemai = 10/8
M: 10/8
L: 1/16
K: C ^1/4f ^g ^d 
Q: 1/4=120
%%MIDI tuningsystem comma53
e4 d2e4g=f feed efed  | .e4 deg=f eddc cBed cBAG  | 
w:  Ah  ka ni  yâd_ *  *  *  ı   |  *  le *  bin *  *  *  le  *  *  *  hûn_  | 
A4 GAB2 Bcd2 e2=fe fgfe  | =f3e baag {a}gagf {g}fee3edf  | 
w:  *  i  *  dil *  *  nûş  *  et  |  *  *  ti *  ğim  *  *  *  *  dem *  *  *  *  ler   SAZ  | 
e4 e^3/4f=g4g^2/4f eaag g=ffe  | e2=dc d2d=f edcB cded cB(3AGA  | 
w:  *  He *  zâ rân  *  *  *  bül  |  *  *  *  bü lü  *  *  *  nâ *  *  *  lem  | 
B4 B^3/4c=d4d=c B=fed cBAB  | G2=FE =dcBA GAGF FEE4z2  | 
w:  *  le  *  hâ mûş  *  *  *  et  |  *  *  *  ti *  ğim  *  *  *  dem *  *  *  ler    | 
A4 E2A4A^3/4c/B/ c2=d2 e2=fg  | e2e=d ed^c^B ABcd {e}dcc3agb  | 
w:  Ah  o  dem ler  *  *  *  hep   |  *  *  *  ha *  yâl  *  *  *  ol *  *  *  *  du  SAZ  | 
a2z2 g2a4g=f e=d^c^B cdef  | gabc' bag=f eagf fee4GA  | 
w:  *  a cep  bil *  *  *  mem   |  *  *  *  *  ne  *  hâl_ *  *  *  ol *  *  *  du   SAZ  | 
B4 GAB4B2 =d2d4^3/4cd  | .e4 e=ddc2B^AB cBB4=Ac  | 
w:  *  Yü *  zün  gör *  mek   |  *  bi *  le  *  *  hat *  *  *  tâ  SAZ  | 
B4 e2c2 {d}cBA4e2 d2e2  | =f2ed cBed cBBA AGA4GA  | 
w:  *  ba na  *  *  *  emr_ i   |  *  *  *  mu *  hâl_ *  *  *  ol *  *  *  du   SAZ  | 
B4 A2B4B4=dc BcBc  | BcBc dedc BABA GAB4(3AGA  | 
w:  *  A lıp  et ra  |  *  *  *  *  fı *  mı  *  *  *  hay *  *  *  ret  SAZ  | 
B4 A2B4B4=dc BcBc  | BcBc dedc BABA GAB4B=d  | 
w:  *  ci han dan  ey  |  *  *  *  *  le *  dim  *  *  *  nef *  *  *  ret   SAZ  | 
c4 B2c3BBA AGA4AG  | =d4 dccB2AAG (3=FEFG4z2  | 
w:  *  Ha râb_ *  en *  *  *  der   |  *  ha *  rab_ *  *  ol *  *  *  *  dum   | 
z4 de=f2 ede2 dcd2 cBAf  | edcB ABdc BAG=F FEE4z2  | 
w:  ye *  ter  *  *  gay *  *  rı   |  *  *  *  *  ye *  ter  *  *  *  has *  *  *  ret    | 
a4 e2a3ga2 agag abag  | a4 bc'ba2bag =fag2 a2gf  | 
w:  Ah  ya nar  *  â *  *  teş  |  *  le *  re  *  *  â *  *  *  râm_  | 
e4 e2=fe fge4fe defe  | b2ag g=ffe dcBc ded2 e2df  | 
w:  *  ü  sab *  *  *  rım  yâ  |  *  *  *  da  *  gel *  *  *  dik *  *  *  çe   *  SAZ  | 
e4 e^3/4f=g4g^2/4f eaag g=ffe  | e2=dc d2d=f edcB cded cB(3AGA  | 
w:  *  Se *  ni  mest_ *  *  *  ey  |  *  *  *  le yip  *  *  *  ey  *  *  *  gül   | 
B4 B^3/4c=d4d=c B=fed cBAB  | G2=FE =dcBA GAGF FEE4z2  | 
w:  *  de *  râ gûş  *  *  *  et  |  *  *  *  ti *  ğim  *  *  *  dem *  *  *  ler    | 
A4 E2A4A^3/4c/B/ c2=d2 e2=fg  | e2e=d ed^c^B ABcd {e}dcc3agb  | 
w:  Ah  o  dem ler  *  *  *  hep   |  *  *  *  ha *  yâl  *  *  *  ol *  *  *  *  du  SAZ  | 
a2z2 g2a4g=f e=d^c^B cdef  | gabc' bag=f eagf fee4GA  | 
w:  *  a cep  bil *  *  *  mem   |  *  *  *  *  ne  *  hâl_ *  *  *  ol *  *  *  du   SAZ  | 
B4 GAB4B2 =d2d4^3/4cd  | .e4 e=ddc2B^AB cBB4=Ac  | 
w:  *  Yü *  zün  gör *  mek   |  *  bi *  le  *  *  hat *  *  *  tâ  SAZ  | 
B4 e2c2 {d}cBA4e2 d2e2  | =f2ed cBed cBBA AGA4GA  | 
w:  *  ba na  *  *  *  emr_ i   |  *  *  *  mu *  hâl_ *  *  *  ol *  *  *  du   SAZ  | 
B4 A2B4B4=dc BcBc  | BcBc dedc BABA GAB4(3AGA  | 
w:  *  A lıp  et ra  |  *  *  *  *  fı *  mı  *  *  *  hay *  *  *  ret  SAZ  | 
B4 A2B4B4=dc BcBc  | BcBc dedc BABA GAB4B=d  | 
w:  *  ci han dan  ey  |  *  *  *  *  le *  dim  *  *  *  nef *  *  *  ret   SAZ  | 
c4 B2c3BBA AGA4AG  | =d4 dccB2AAG (3=FEFG4z2  | 
w:  *  Ha râb_ *  en *  *  *  der   |  *  ha *  rab_ *  *  ol *  *  *  *  dum   | 
z4 de=f2 ede2 dcd2 cBAf  | edcB ABdc BAG=F FEE4z2  | 
w:  ye *  ter  *  *  gay *  *  rı   |  *  *  *  *  ye *  ter  *  *  *  has *  *  *  ret    | 
|


